X:13023
T:Muckin' o' Geordie's Byre
T:Mucking Out the Byre
R:Jig
C:Trad.
O:Scotland, Hebrides
M:6/8
L:1/8
Q:1/8=240
K:D
A|"D"ABA AFA|d2e f2a|"G"g2e "D"f2d|"G"e2d BdB|
"D"ABA AFA|d2e f2g|"G"afd "A"efe|"D"d3 d2:|
|:e/2f/2|"Em"g2 g gag|"D"f2 f faf|"Em"e2e "A7"ede|"D"fed "G"BdB|
"D"ABA AFA|d2e "G"f2g|"D"afd "A7"efe|"D"d3 d2:|

